icons/glyphs/glyph-display.svg

<?xml version="1.0" encoding="UTF-8" standalone="no"?><svg height="32" viewBox="0 0 32 32" width="32" xmlns="http://www.w3.org/2000/svg"><sodipodi:namedview/><metadata><rdf:RDF><cc:Work><dc:format>image/svg+xml</dc:format><dc:type/><dc:title/></cc:Work></rdf:RDF></metadata><path d="m1.84375.88378905c-1.02192437 0-1.84375.82377865-1.84375 1.84570305v21.1730469c0 1.021924.82182563 1.845703 1.84375 1.845703h8.90625v2.311328h-2.589844c-.7691285 0-1.3867185.619543-1.3867185 1.388672v.279297c0 .769128.61759 1.388672 1.3867185 1.388672h15.679688c.769129 0 1.386718-.619544 1.386718-1.388672v-.279297c0-.769129-.617589-1.388672-1.386718-1.388672h-2.589844v-2.311328h8.904297c1.021924 0 1.845703-.823779 1.845703-1.845703v-21.1730469c0-1.0219245-.823779-1.84570305-1.845703-1.84570305zm2.8125 3.27539065h22.929688c.681502 0 1.228515.5489666 1.228515 1.2304687v16.0734376c0 .681501-.547014 1.228516-1.228515 1.228516h-22.929688c-.6815011 0-1.2304688-.547015-1.2304688-1.228516v-16.0734376c0-.6815021.5489679-1.2304688 1.2304688-1.2304687z" fill="#d0d0d0" stroke-linecap="square" stroke-width="1.491364"/></svg>

<?xml version="1.0" encoding="UTF-8" standalone="no"?>
<!-- Created with Inkscape (http://www.inkscape.org/) -->

<svg
   xmlns:dc="http://purl.org/dc/elements/1.1/"
   xmlns:cc="http://creativecommons.org/ns#"
   xmlns:rdf="http://www.w3.org/1999/02/22-rdf-syntax-ns#"
   xmlns:svg="http://www.w3.org/2000/svg"
   xmlns="http://www.w3.org/2000/svg"
   xmlns:sodipodi="http://sodipodi.sourceforge.net/DTD/sodipodi-0.dtd"
   xmlns:inkscape="http://www.inkscape.org/namespaces/inkscape"
   width="32"
   height="32"
   viewBox="0 0 32 32"
   version="1.1"
   id="svg8"
   inkscape:version="0.92+devel 15703 custom"
   sodipodi:docname="glyph-display.svg">
  <defs
     id="ol-defs">
    <style
       id="current-color-scheme">      .ColorScheme-Text {
        color:#d0d0d0;
        stop-color:#d0d0d0;
      }
      .ColorScheme-Background {
        color:#212121;
        stop-color:#212121;
      }
      .ColorScheme-Highlight {
        color:#0039a9;
        stop-color:#0039a9;
      }
      .ColorScheme-ViewText {
        color:#d0d0d0;
        stop-color:#d0d0d0;
      }
      .ColorScheme-ViewBackground {
        color:#19191b;
        stop-color:#19191b;
      }
      .ColorScheme-ViewHover {
        color:#005cc7;
        stop-color:#005cc7;
      }
      .ColorScheme-ViewFocus{
        color:#002466;
        stop-color:#002466;
      }
      .ColorScheme-ButtonText {
        color:#d0d0d0;
        stop-color:#d0d0d0;
      }
      .ColorScheme-ButtonBackground {
        color:#232323;
        stop-color:#232323;                             
      }                                                 
      .ColorScheme-ButtonHover {                        
        color:#005cc7;                                  
        stop-color:#005cc7;                             
      }                                                 
      .ColorScheme-ButtonFocus{                         
        color:#0039a9;                                  
        stop-color:#0039a9;                             
      }</style>
    <style
       id="current-color-scheme-7">      .ColorScheme-Text {
        color:#d0d0d0;
        stop-color:#d0d0d0;
      }
      .ColorScheme-Background {
        color:#212121;
        stop-color:#212121;
      }
      .ColorScheme-Highlight {
        color:#0039a9;
        stop-color:#0039a9;
      }
      .ColorScheme-ViewText {
        color:#d0d0d0;
        stop-color:#d0d0d0;
      }
      .ColorScheme-ViewBackground {
        color:#19191b;
        stop-color:#19191b;
      }
      .ColorScheme-ViewHover {
        color:#005cc7;
        stop-color:#005cc7;
      }
      .ColorScheme-ViewFocus{
        color:#002466;
        stop-color:#002466;
      }
      .ColorScheme-ButtonText {
        color:#d0d0d0;
        stop-color:#d0d0d0;
      }
      .ColorScheme-ButtonBackground {
        color:#232323;
        stop-color:#232323;                             
      }                                                 
      .ColorScheme-ButtonHover {                        
        color:#005cc7;                                  
        stop-color:#005cc7;                             
      }                                                 
      .ColorScheme-ButtonFocus{                         
        color:#0039a9;                                  
        stop-color:#0039a9;                             
      }</style>
  </defs>
  <sodipodi:namedview
     id="base"
     pagecolor="#002266"
     bordercolor="#ffffff"
     borderopacity="0.46666667"
     inkscape:pageopacity="0"
     inkscape:pageshadow="2"
     inkscape:zoom="18.185903"
     inkscape:cx="31.399413"
     inkscape:cy="11.170575"
     inkscape:document-units="px"
     inkscape:current-layer="svg8"
     inkscape:document-rotation="0"
     showgrid="false"
     inkscape:showpageshadow="false"
     borderlayer="true"
     units="px"
     fit-margin-top="0"
     fit-margin-left="0"
     fit-margin-right="0"
     fit-margin-bottom="0"
     inkscape:window-width="1920"
     inkscape:window-height="1054"
     inkscape:window-x="0"
     inkscape:window-y="0"
     inkscape:window-maximized="1"
     inkscape:snap-page="true"
     inkscape:snap-bbox="true"
     inkscape:snap-midpoints="false"
     inkscape:snap-smooth-nodes="true"
     inkscape:object-paths="true"
     inkscape:snap-intersection-paths="true" />
  <metadata
     id="metadata5">
    <rdf:RDF>
      <cc:Work
         rdf:about="">
        <dc:format>image/svg+xml</dc:format>
        <dc:type
           rdf:resource="http://purl.org/dc/dcmitype/StillImage" />
        <dc:title></dc:title>
      </cc:Work>
    </rdf:RDF>
  </metadata>
  <path
     style="opacity:1;vector-effect:none;fill:#d0d0d0;stroke-width:1.49136376;stroke-linecap:square"
     d="M 1.84375,0.88378905 C 0.82182563,0.88378905 0,1.7075677 0,2.7294921 V 23.902539 c 0,1.021924 0.82182563,1.845703 1.84375,1.845703 H 10.75 V 28.05957 H 8.160156 c -0.7691285,0 -1.3867185,0.619543 -1.3867185,1.388672 v 0.279297 c 0,0.769128 0.61759,1.388672 1.3867185,1.388672 h 15.679688 c 0.769129,0 1.386718,-0.619544 1.386718,-1.388672 v -0.279297 c 0,-0.769129 -0.617589,-1.388672 -1.386718,-1.388672 H 21.25 v -2.311328 h 8.904297 C 31.176221,25.748242 32,24.924463 32,23.902539 V 2.7294921 C 32,1.7075676 31.176221,0.88378905 30.154297,0.88378905 Z m 2.8125,3.27539065 h 22.929688 c 0.681502,0 1.228515,0.5489666 1.228515,1.2304687 V 21.463086 c 0,0.681501 -0.547014,1.228516 -1.228515,1.228516 H 4.65625 c -0.6815011,0 -1.2304688,-0.547015 -1.2304688,-1.228516 V 5.3896484 c 0,-0.6815021 0.5489679,-1.2304688 1.2304688,-1.2304687 z"
     id="rect4264-5"
     inkscape:connector-curvature="0"
     sodipodi:nodetypes="ssssccssssssssccssssssssssssss"
     inkscape:label="#" />
</svg>
